X:1
T:Ancora che tu
T:Paolo Quagliato
T:Source : Canzonette a la Romana a tre voce---Venetia---Ang.Gardano---1601. Editor : André Vierendeels (28/01/17).
T:Notes : Original clefs : C1, C2, F4
T:Ancora che tu
T:©
T:©
T:©
C:Paolo Quagliato
Z:©
%%score [ 1 2 3 ]
L:1/8
Q:1/4=101
M:4/4
K:C
V:1 treble nm="Soprano 1" snm="S 1"
V:2 treble nm="Soprano 2" snm="S 2"
V:3 bass nm="Bass" snm="B"
V:1
"^1)" z2 d2 d3 d |: d2 c2 d4- | d2 c3 c d2 | e4 e2 c2- | cc B2 A4 | A4 A2 A2 | A4 A2 G2 | %7
w: An- co- ra|che tu m'o-|* di- i'a- ni-|ma mia, a-|* ni- ma mi-|a, con ver-|ra che- tuo|
w: An- cor che|mi dis- prez-|* z'in o- gni|lo- co, go|_ de- ro del|mio fo- co,|del mi- o|
[M:2/4] A4 |1[M:4/4] G2 d2 d3 d ::2 G2 G4 A2- || A2 B4 c2- | c2 d2 e2 c2 | d2 e2 f4 | e2 e2 e2 d2 | %14
w: si-|a, an- co- ra|a, e che|_ ti se-|* hu'ogn- hor dol-|ce ben mi-|o, dol- ce ben|
w: fo-|co, an- cor che|co, e de-|* gli stra-|* li che nel|pet- to sen-|to, nel pet- to|
 c4 B4- |[M:2/4] B4 |[M:4/4] G2 GG G2 G2 | c2 c2 c2 B2 | A4 A4 | B2 BB B2 B2 | e2 e2 e2 d2 | %21
w: mi- o.|_|Ch'a se- guir- ti mi|spia- ge'il mio de-|si- o,|ch'a se- guir- ti mi|spia- ge'il mio de-|
w: sen- to.|_|Ca- gion ch'io pro- vi'ogn'|hor dol- ce tor-|men- to,|ca- gion ch'io pro- vi'ogn'|hor dol- ce tor-|
 ^c4 c4 | z2 d4 G2- | G2 A2 A4 | G8 |] %25
w: si- o,|il mio|_ de- si-|o.|
w: men- to,|dol- ce|_ tor- men-|to.|
V:2
"^2)""^1)" z2 B2 B3 B |: B2 c2 B4 | G4 A3 B | c4 c2 A2- | AA G2 ^F4 | ^F4 F2 F2 | ^F4 F2 G2 | %7
w: An- co- ra|che tu m'o-|di- i'a- ni-|ma mia, a-|* ni- ma mi-|a; con- ver-|ra che tuo|
w: An- cor che|mi dis- prez-|z'in o- gni|lo- co, go-|* de- ro del|mio fo- co,|del mi- o|
[M:2/4] G2 ^F2 |1[M:4/4] G2 B2 B3 B ::2 G4 z2 E2 || F4 G4 | A2 B2 c2 A2 | A2 G2 A2 B2 | %13
w: si- *|a, an- co- ra|a, e|che ti|se- gu'ogn' hor dol-|ce ben mi- *|
w: fo- *|co, an- coe che|co, e|de gli|stra- li che nel|pet- to sen- *|
 c2 G2 G2 G2- | G2 F2 G4- |[M:2/4] G4 |[M:4/4] E2 EE E2 E2 | A2 A2 A2 G2 | ^F4 F4 | G2 GG G2 G2 | %20
w: o, dol- ce ben|_ mi- o.|_|Ch'a se- guir- ti mi|spia- ge'il mio de-|si- o,|ch'a se- guir- ti mi-|
w: to, nel pet- to|_ sen- to,|_|Ca- gion ch'io pro- vi'ogn'|hor dil- ce tor-|men- to,|ca- gion ch'io pro- vi'ogn'|
 c2 c2 c2 B2 | A8 | A4 z2 D2 | E2 E2 ^F4 | G8 |] %25
w: spia- ge'il mio de-|si-|o, il|mio se- si-|o.|
w: hor dol- ce tor-|men-|to, dol-|ce tor- men-|to.|
V:3
"^3)""^1)""^4)" z2 G,2 G,3 G, |: G,2 A,2 G,4 | E,4 F,2 D,2 | C,4 C,2 F,2- | F,F, G,2 D,4 | %5
w: An- co- ra|che tu m'o-|di- i'a- ni-|ma mia, a-|* ni- ma mi-|
w: E an- cor|che'il mio gio-|ir non ven-|ga mai, _|non ven- ga ma-|
 D,4 D,2 D,2 | D,4 D,2 E,2 |[M:2/4] D,4 |1[M:4/4] G,,2 G,2 G,3 G, ::2 G,,4 C,4 || D,4 E,4 | %11
w: a, con- ver-|ra che tuo|si-|a, an- co- ra|a, e|che ti|
w: i, gri- de-|ro'in mez- zo'à|gua-|i, e an- cor|i, sem-|pre sa-|
 F,2 D,2 C,2 F,2 | F,2 E,2 D,4 | C,2 C2 C2 B,2 | A,4 G,G,G,G, |[M:2/4] G,2 G,2 | %16
w: se- gu'ogn' hor dol-|ce ben mi-|o, dol- ce ben|mi- o, ch'a se- guir-|ti mi|
w: ra di te a-|ni- ma mi-|a, a- ni- ma|mi- a, que- sto mio|cor quan-|
[M:4/4] C2 C2 C3 B, | A,4 A,4 | D,2 D,D, D,2 D,2 | G,2 G,2 G,3 F, | E,4 E,4 | z2 A,2 A,2 G,2 | %22
w: spia- ge'il mio de-|si- o,|ch'a se- guir- ti mi|spia- ge'il mio de|si- o,|il mio de-|
w: tun- que in pe-|na- sia,|qu- sto mio cor quan-|tun- que in pe-|na- sia,|in pe- na-|
 ^F,4 G,2 G,2 | C,2 C,2 D,4 | G,,8 |] %25
w: si- o, il|mio de- si-|o.|
w: si- a, in|pe- na- si-|a.|

